X:105
T:Cuddle me Cuddy
T:mad Moll
A:Wyresdale, Lancashire
B:E and J Winder, 1835-41
L:1/4
M:6/4
O:England
Z:Richard Robinson 
%%RRN:If you re-bar this in 9/4 it becomes a version of "the Peacock follow the Hen"
%%TUNEURL: http://www.leeds.ac.uk/music/Info/RRTuneBk/gettune/00000e94.html
%%ID:00000e94
K:C
A |\
c>de  cAA  | cAA c>de | cAA B2G | c>de  cAA  |  cAA  Bcd  | ded B2G ::
c>de (ge)e | gee cde  | gee g2d | c>de (ge)e | (ge)e B>cd | d>ed B2G |]
